jsapp/svg-icons/qt-rating-lock.svg

<svg height="642" viewBox="0 0 642 642" width="642" xmlns="http://www.w3.org/2000/svg"><path d="m509 125c19.882251 0 36 16.117749 36 36s-16.117749 36-36 36-36-16.117749-36-36 16.117749-36 36-36zm-396 72h340.73c-14.30054-21.869735-14.30054-50.130265 0-72h-340.73c-8.836556 0-16 7.163444-16 16v40c0 8.836556 7.163444 16 16 16zm311.85 160c30.339369-33.281442 76.25833-47.632312 120.15-37.55v-18.45c0-8.836556-7.163444-16-16-16h-152.73c14.30054 21.869735 14.30054 50.130265 0 72zm-291.85 88c-19.882251 0-36 16.117749-36 36s16.117749 36 36 36 36-16.117749 36-36-16.117749-36-36-36zm152-124c0 19.882251 16.117749 36 36 36s36-16.117749 36-36-16.117749-36-36-36-36 16.117749-36 36zm67 196v-8.93c.023543-26.592068 15.79894-50.643855 40.18-61.26v-1.81h-203.91c14.30054 21.869735 14.30054 50.130265 0 72zm-239-160h152.73c-14.30054-21.869735-14.30054-50.130265 0-72h-152.73c-8.836556 0-16 7.163444-16 16v40c0 8.836556 7.163444 16 16 16zm529 151.07v107.14c0 14.795708-11.994292 26.79-26.79 26.79h-196.42c-14.795708 0-26.79-11.994292-26.79-26.79v-107.14c0-14.795708 11.994292-26.79 26.79-26.79h13.39v-40.17c0-46.844792 37.975208-84.82 84.82-84.82s84.82 37.975208 84.82 84.82v40.18h13.39c14.791804 0 26.784479 11.988197 26.79 26.78zm-97.91 52c0-14.746003-11.953997-26.7-26.7-26.7s-26.7 11.953997-26.7 26.7 11.953997 26.7 26.7 26.7c14.730396 0 26.677932-11.929621 26.7-26.66zm13.09-119c0-22.190801-17.989199-40.18-40.18-40.18s-40.18 17.989199-40.18 40.18v40.18h80.36z"/></svg>

<svg id="Layer_1" data-name="Layer 1" xmlns="http://www.w3.org/2000/svg" viewBox="0 0 642 642"><path d="M473,161a36,36,0,1,1,36,36A36,36,0,0,1,473,161ZM113,197H453.73a65.78,65.78,0,0,1,0-72H113a16,16,0,0,0-16,16v40A16,16,0,0,0,113,197ZM424.85,357A124.78,124.78,0,0,1,545,319.45V301a16,16,0,0,0-16-16H376.27a65.78,65.78,0,0,1,0,72ZM133,445a36,36,0,1,0,36,36A36,36,0,0,0,133,445ZM285,321a36,36,0,1,0,36-36A36,36,0,0,0,285,321Zm67,196v-8.93a66.88,66.88,0,0,1,40.18-61.26V445H188.27a65.78,65.78,0,0,1,0,72ZM113,357H265.73a65.78,65.78,0,0,1,0-72H113a16,16,0,0,0-16,16v40A16,16,0,0,0,113,357ZM642,508.07V615.21A26.79,26.79,0,0,1,615.21,642H418.79A26.79,26.79,0,0,1,392,615.21V508.07a26.79,26.79,0,0,1,26.79-26.79h13.39V441.11a84.82,84.82,0,0,1,169.64,0v40.18h13.39A26.79,26.79,0,0,1,642,508.07Zm-97.91,52a26.7,26.7,0,1,0-26.7,26.7A26.7,26.7,0,0,0,544.09,560.11Zm13.09-119a40.18,40.18,0,1,0-80.36,0v40.18h80.36Z"/></svg>
